images/icons/dev.svg

<?xml version="1.0" encoding="UTF-8"?>
<svg width="117px" height="99px" viewBox="0 0 117 99" version="1.1" xmlns="http://www.w3.org/2000/svg" xmlns:xlink="http://www.w3.org/1999/xlink">
    <!-- Generator: Sketch 50.2 (55047) - http://www.bohemiancoding.com/sketch -->
    <title>DevIcon Copy</title>
    <desc>Created with Sketch.</desc>
    <defs></defs>
    <g id="Page-1" stroke="none" stroke-width="1" fill="none" fill-rule="evenodd">
        <g id="Landing-Page-Copy-2" transform="translate(-642.000000, -1034.000000)" fill="#2A1B41">
            <g id="DevIcon-Copy" transform="translate(642.000000, 1034.000000)">
                <path d="M115.285753,73.124172 C111.857127,73.124172 111.857127,73.124172 111.857127,73.124172 C111.857127,28.52058 111.857127,28.52058 111.857127,28.52058 C111.857127,27.5913 111.071387,26.805108 110.071365,26.805108 C109.142858,26.805108 108.357118,27.5913 108.357118,28.52058 C108.357118,43.245444 108.357118,43.245444 108.357118,43.245444 C81.2143011,43.245444 81.2143011,43.245444 81.2143011,43.245444 C81.2143011,16.797792 81.2143011,16.797792 81.2143011,16.797792 C88.1428045,16.797792 88.1428045,16.797792 88.1428045,16.797792 C88.1428045,24.803592 88.1428045,24.803592 88.1428045,24.803592 C88.1428045,26.090196 89.2143404,27.162432 90.571409,27.162432 C99.0713933,27.162432 99.0713933,27.162432 99.0713933,27.162432 C100.35721,27.162432 101.428615,26.090196 101.428615,24.803592 C101.428615,16.797792 101.428615,16.797792 101.428615,16.797792 C108.357118,16.797792 108.357118,16.797792 108.357118,16.797792 C108.357118,20.51478 108.357118,20.51478 108.357118,20.51478 C108.357118,21.44406 109.142858,22.230384 110.071365,22.230384 C111.071387,22.230384 111.857127,21.44406 111.857127,20.51478 C111.857127,16.0116 111.857127,16.0116 111.857127,16.0116 C111.857127,14.510496 110.642825,13.295304 109.142858,13.295304 C81.2143011,13.295304 81.2143011,13.295304 81.2143011,13.295304 C81.2143011,1.715472 81.2143011,1.715472 81.2143011,1.715472 C81.2143011,0.786324 80.4285607,0 79.5000539,0 C78.5714157,0 77.7856753,0.786324 77.7856753,1.715472 C77.7856753,61.901796 77.7856753,61.901796 77.7856753,61.901796 C71.142836,61.901796 71.142836,61.901796 71.142836,61.901796 C70.9285551,61.901796 70.642891,61.901796 70.3570955,61.97334 C56.9285191,16.297512 56.9285191,16.297512 56.9285191,16.297512 C55.6428337,11.865744 51.499982,8.72058 46.9285685,8.72058 C13.3571933,8.72058 13.3571933,8.72058 13.3571933,8.72058 C10.1428483,8.72058 7.57147753,11.365332 7.57147753,14.510496 C7.57147753,35.8116 7.57147753,35.8116 7.57147753,35.8116 C7.57147753,36.740748 8.35708652,37.527072 9.28572472,37.527072 C10.2142315,37.527072 10.9999719,36.740748 10.9999719,35.8116 C10.9999719,14.510496 10.9999719,14.510496 10.9999719,14.510496 C10.9999719,13.223892 12.0713764,12.223068 13.3571933,12.223068 C46.9285685,12.223068 46.9285685,12.223068 46.9285685,12.223068 C50.0000157,12.223068 52.7856674,14.295996 53.6429225,17.22666 C67.2142652,63.4029 67.2142652,63.4029 67.2142652,63.4029 C67.2142652,63.4029 67.2142652,63.4029 67.142882,63.474312 C67.0713674,63.545856 66.9999843,63.617268 66.9286011,63.688812 C66.8570865,63.760224 66.8570865,63.760224 66.8570865,63.760224 C66.7143202,63.903312 66.6428056,63.974724 66.5714225,64.11768 C65.3571202,65.54724 65.3571202,65.54724 65.3571202,65.54724 C51.2857011,17.941572 51.2857011,17.941572 51.2857011,17.941572 C50.7142416,15.940056 48.9286112,14.581908 46.9285685,14.581908 C15.1428236,14.581908 15.1428236,14.581908 15.1428236,14.581908 C14.2143169,14.581908 13.4285764,15.368232 13.4285764,16.297512 C13.4285764,48.10608 13.4285764,48.10608 13.4285764,48.10608 C10.9999719,48.10608 10.9999719,48.10608 10.9999719,48.10608 C10.9999719,43.817268 10.9999719,43.817268 10.9999719,43.817268 C10.9999719,42.88812 10.2142315,42.101796 9.28572472,42.101796 C8.35708652,42.101796 7.57147753,42.88812 7.57147753,43.817268 C7.57147753,48.10608 7.57147753,48.10608 7.57147753,48.10608 C6.42855843,48.10608 6.42855843,48.10608 6.42855843,48.10608 C2.85716629,48.10608 0,50.965332 0,54.539364 C0,84.13218 0,84.13218 0,84.13218 C0,86.27652 1.71424719,87.992124 3.85718764,87.992124 C5.42853708,87.992124 5.42853708,87.992124 5.42853708,87.992124 C7.21429888,94.353732 13.0713978,99 19.928518,99 C26.8571528,99 32.6428685,94.353732 34.4286303,87.992124 C61.500064,87.992124 61.500064,87.992124 61.500064,87.992124 C62.000009,94.139364 67.142882,99 73.4285427,99 C80.071382,99 85.428536,93.638952 85.428536,87.062844 C85.428536,83.417268 83.7856719,80.12928 81.2143011,77.913396 C81.2143011,76.555248 81.2143011,76.555248 81.2143011,76.555248 C115.285753,76.555248 115.285753,76.555248 115.285753,76.555248 C116.285774,76.555248 117,75.768924 117,74.839776 C117,73.910496 116.285774,73.124172 115.285753,73.124172 Z M91.5714303,16.797792 C97.9999888,16.797792 97.9999888,16.797792 97.9999888,16.797792 C97.9999888,23.731356 97.9999888,23.731356 97.9999888,23.731356 C91.5714303,23.731356 91.5714303,23.731356 91.5714303,23.731356 L91.5714303,16.797792 Z M16.8572022,18.084528 C46.9285685,18.084528 46.9285685,18.084528 46.9285685,18.084528 C47.4285135,18.084528 47.8572067,18.37044 47.999973,18.87072 C60.2142472,60.400692 60.2142472,60.400692 60.2142472,60.400692 C58.7142809,58.327764 58.7142809,58.327764 58.7142809,58.327764 C57.7142596,57.04116 55.8571146,56.683704 54.5000461,57.541572 C53.5714079,58.113396 53.5714079,58.113396 53.5714079,58.113396 C51.4285989,54.324864 51.4285989,54.324864 51.4285989,54.324864 C53.7143056,52.895304 53.7143056,52.895304 53.7143056,52.895304 C54.5000461,52.394892 54.7857101,51.322788 54.2142506,50.46492 C53.7143056,49.678728 52.7142843,49.464228 51.8571607,49.96464 C44.4285809,54.539364 44.4285809,54.539364 44.4285809,54.539364 C43.6428404,55.039776 43.3571764,56.11188 43.8571213,56.898204 C44.2143,57.470028 44.7857596,57.75594 45.3570876,57.75594 C45.6428831,57.75594 46.0000618,57.684528 46.2857258,57.470028 C48.5000494,56.11188 48.5000494,56.11188 48.5000494,56.11188 C50.6428584,59.900412 50.6428584,59.900412 50.6428584,59.900412 C49.7143517,60.472236 49.7143517,60.472236 49.7143517,60.472236 C48.2857685,61.401384 47.7856921,63.1884 48.5714326,64.689504 C50.7142416,68.83536 50.7142416,68.83536 50.7142416,68.83536 C43.2856618,68.83536 43.2856618,68.83536 43.2856618,68.83536 C41.2857506,68.83536 39.6428865,67.1913 39.6428865,65.189916 C39.6428865,62.68812 39.6428865,62.68812 39.6428865,62.68812 C39.6428865,54.610776 33.0714303,48.10608 25.071391,48.10608 C16.8572022,48.10608 16.8572022,48.10608 16.8572022,48.10608 L16.8572022,18.084528 Z M62.1429067,68.692404 C62.0713921,68.763948 62.000009,68.763948 61.9286258,68.763948 C61.9286258,68.763948 61.9286258,68.763948 61.9286258,68.763948 C61.8571112,68.763948 61.7857281,68.83536 61.7857281,68.83536 C61.7143449,68.83536 61.6428303,68.83536 61.5714472,68.83536 C61.5714472,68.83536 61.500064,68.83536 61.500064,68.83536 C61.4285494,68.83536 61.2856517,68.83536 61.2142685,68.83536 C54.5714292,68.83536 54.5714292,68.83536 54.5714292,68.83536 C51.7142629,63.331356 51.7142629,63.331356 51.7142629,63.331356 C56.0713955,60.615192 56.0713955,60.615192 56.0713955,60.615192 L62.1429067,68.692404 Z M31.4999494,84.489504 C31.4999494,84.63246 31.4999494,84.704004 31.4999494,84.84696 C31.4999494,84.918372 31.4999494,84.989916 31.4999494,85.061328 C31.4999494,85.132872 31.4285663,85.275828 31.4285663,85.418784 C31.4285663,85.490196 31.4285663,85.490196 31.4285663,85.490196 C31.4285663,85.633152 31.3571831,85.776108 31.3571831,85.919196 C30.4285449,91.423068 25.6428506,95.568924 19.928518,95.568924 C14.2143169,95.568924 9.42862247,91.423068 8.49998427,85.990608 C8.49998427,85.776108 8.49998427,85.633152 8.42860112,85.490196 C8.42860112,85.490196 8.42860112,85.490196 8.42860112,85.418784 C8.42860112,85.275828 8.42860112,85.132872 8.42860112,84.989916 C8.42860112,84.989916 8.42860112,84.918372 8.35708652,84.84696 C8.35708652,84.704004 8.35708652,84.63246 8.35708652,84.489504 C8.35708652,84.346548 8.35708652,84.13218 8.35708652,83.989224 C8.35708652,77.627484 13.5714742,72.409392 19.928518,72.409392 C20.3570798,72.409392 20.7142584,72.409392 21.1428202,72.480804 C26.928536,73.05276 31.4999494,77.984808 31.4999494,83.989224 C31.4999494,84.203592 31.4999494,84.346548 31.4999494,84.489504 Z M34.9999584,84.561048 C34.9999584,84.346548 34.9999584,84.203592 34.9999584,83.989224 C34.9999584,76.698204 29.7857022,70.622376 22.9999652,69.264228 C21.9999438,69.04986 21.0000539,68.978316 19.928518,68.978316 C11.6428146,68.978316 4.92859213,75.697512 4.92859213,83.989224 C4.92859213,84.203592 4.92859213,84.346548 4.92859213,84.561048 C3.85718764,84.561048 3.85718764,84.561048 3.85718764,84.561048 C3.64290674,84.561048 3.42862584,84.346548 3.42862584,84.13218 C3.42862584,54.539364 3.42862584,54.539364 3.42862584,54.539364 C3.42862584,52.895304 4.78569438,51.537156 6.42855843,51.537156 C25.071391,51.537156 25.071391,51.537156 25.071391,51.537156 C31.2142854,51.537156 36.1428775,56.540748 36.1428775,62.68812 C36.1428775,65.189916 36.1428775,65.189916 36.1428775,65.189916 C36.1428775,69.121272 39.357091,72.337848 43.2856618,72.337848 C61.2142685,72.337848 61.2142685,72.337848 61.2142685,72.337848 C61.2856517,72.337848 61.4285494,72.337848 61.5714472,72.337848 C61.6428303,72.266436 61.7143449,72.266436 61.7857281,72.266436 C61.7857281,72.266436 61.8571112,72.266436 61.8571112,72.266436 C61.9286258,72.266436 62.0713921,72.266436 62.1429067,72.266436 C62.1429067,72.266436 62.1429067,72.266436 62.1429067,72.266436 C63.5714899,72.051936 64.8571753,71.4087 65.785682,70.336464 C65.785682,70.336464 65.785682,70.336464 65.8571966,70.336464 C65.8571966,70.336464 65.8571966,70.336464 65.8571966,70.336464 C65.8571966,70.336464 65.8571966,70.336464 65.8571966,70.336464 C65.8571966,70.336464 65.8571966,70.336464 65.8571966,70.336464 C65.8571966,70.336464 65.8571966,70.336464 65.8571966,70.336464 C65.8571966,70.26492 65.9285798,70.26492 65.9999629,70.193508 C66.0714775,70.121964 66.1428607,70.050552 66.1428607,69.979008 C69.2143079,66.262152 69.2143079,66.262152 69.2143079,66.262152 C69.285691,66.190608 69.3572056,66.190608 69.3572056,66.119196 C69.4285888,66.047652 69.4285888,66.047652 69.4999719,66.047652 C69.4999719,65.976108 69.5714865,65.976108 69.5714865,65.904696 C69.6428697,65.904696 69.6428697,65.833152 69.7142528,65.833152 C69.7142528,65.833152 69.7857674,65.76174 69.7857674,65.76174 C69.8571506,65.76174 69.9285337,65.690196 70.0000483,65.690196 C70.3570955,65.475828 70.7142742,65.332872 71.142836,65.332872 C77.7856753,65.332872 77.7856753,65.332872 77.7856753,65.332872 C77.7856753,75.840468 77.7856753,75.840468 77.7856753,75.840468 C77.7142921,75.840468 77.642909,75.768924 77.5713944,75.768924 C77.5713944,75.768924 77.5713944,75.768924 77.5713944,75.768924 C77.3571135,75.697512 77.2143472,75.625968 76.9999348,75.625968 C76.9999348,75.554556 76.9999348,75.554556 76.9999348,75.554556 C76.7856539,75.554556 76.6428876,75.483012 76.4999899,75.4116 C76.4286067,75.4116 76.4286067,75.4116 76.4286067,75.4116 C76.2143258,75.340056 76.0714281,75.340056 75.9285303,75.340056 C75.8571472,75.268644 75.8571472,75.268644 75.785764,75.268644 C75.6428663,75.268644 75.4999685,75.1971 75.3572022,75.1971 C75.2856876,75.1971 75.2856876,75.1971 75.2143045,75.1971 C75.0714067,75.125688 74.928509,75.125688 74.7857427,75.125688 C74.7142281,75.125688 74.7142281,75.125688 74.6428449,75.125688 C74.4999472,75.125688 74.3571809,75.054144 74.2142831,75.054144 C74.1429,75.054144 74.0713854,75.054144 74.0713854,75.054144 C73.8571045,75.054144 73.6428236,75.054144 73.4285427,75.054144 C73.2857764,75.054144 73.071364,75.054144 72.8570831,75.054144 C72.7857,75.054144 72.7143169,75.054144 72.6428022,75.054144 C72.5714191,75.054144 72.4285213,75.125688 72.3571382,75.125688 C72.2142404,75.125688 72.1428573,75.125688 71.9999596,75.125688 C71.9285764,75.125688 71.8571933,75.125688 71.7856787,75.1971 C71.6429124,75.1971 71.5713978,75.1971 71.4286315,75.1971 C71.3571169,75.1971 71.3571169,75.268644 71.2857337,75.268644 C66.5000393,76.12638 62.7142348,79.843368 61.7143449,84.561048 L34.9999584,84.561048 Z M82.0000416,87.062844 C82.0000416,91.780524 78.1428539,95.568924 73.4285427,95.568924 C68.7142315,95.568924 64.9285584,91.780524 64.9285584,87.062844 C64.9285584,86.848344 64.9285584,86.633976 64.9285584,86.419476 C64.9285584,86.419476 64.9285584,86.419476 64.9285584,86.419476 C65.2142225,82.416576 68.3571843,79.128456 72.2142404,78.556632 C72.2142404,78.556632 72.2857551,78.556632 72.2857551,78.556632 C72.3571382,78.556632 72.500036,78.556632 72.6428022,78.556632 C72.6428022,78.556632 72.7143169,78.556632 72.7857,78.556632 C72.8570831,78.48522 72.9285978,78.48522 72.9999809,78.48522 C73.1428787,78.48522 73.2857764,78.48522 73.4285427,78.48522 C73.5714404,78.48522 73.7143382,78.48522 73.8571045,78.48522 C73.8571045,78.48522 73.9286191,78.48522 73.9286191,78.48522 C74.0713854,78.48522 74.1429,78.556632 74.2856663,78.556632 C74.2856663,78.556632 74.3571809,78.556632 74.3571809,78.556632 C74.4999472,78.556632 74.6428449,78.556632 74.7142281,78.556632 C74.7142281,78.628176 74.7142281,78.628176 74.7857427,78.628176 C75.0000236,78.628176 75.2856876,78.699588 75.5714831,78.771132 C79.285773,79.700412 82.0000416,83.059944 82.0000416,87.062844 Z M91.5714303,46.67652 C97.9999888,46.67652 97.9999888,46.67652 97.9999888,46.67652 C97.9999888,53.610084 97.9999888,53.610084 97.9999888,53.610084 C91.5714303,53.610084 91.5714303,53.610084 91.5714303,53.610084 L91.5714303,46.67652 Z M81.2143011,73.124172 C81.2143011,46.67652 81.2143011,46.67652 81.2143011,46.67652 C88.1428045,46.67652 88.1428045,46.67652 88.1428045,46.67652 C88.1428045,54.68232 88.1428045,54.68232 88.1428045,54.68232 C88.1428045,56.040468 89.2143404,57.112572 90.571409,57.112572 C99.0713933,57.112572 99.0713933,57.112572 99.0713933,57.112572 C100.35721,57.112572 101.428615,56.040468 101.428615,54.68232 C101.428615,46.67652 101.428615,46.67652 101.428615,46.67652 C108.357118,46.67652 108.357118,46.67652 108.357118,46.67652 C108.357118,73.124172 108.357118,73.124172 108.357118,73.124172 L81.2143011,73.124172 Z" id="Fill-44"></path>
                <path d="M20,75 C16.1468182,75 13,78.5962667 13,83 C13,87.4037333 16.1468182,91 20,91 C23.8531818,91 27,87.4037333 27,83 C27,78.5962667 23.8531818,75 20,75 Z M20,87.4770667 C17.8807818,87.4770667 16.1468182,85.422 16.1468182,83 C16.1468182,80.578 17.8807818,78.5229333 20,78.5229333 C22.1834909,78.5229333 23.9174545,80.578 23.9174545,83 C23.9174545,85.422 22.1834909,87.4770667 20,87.4770667 Z" id="Fill-45"></path>
                <path d="M73.9626667,81 C70.6832,81 68,83.6832 68,87.0373333 C68,90.3168 70.6832,93 73.9626667,93 C77.3168,93 80,90.3168 80,87.0373333 C80,83.6832 77.3168,81 73.9626667,81 Z M73.9626667,89.4224 C72.6210667,89.4224 71.5776,88.3789333 71.5776,87.0373333 C71.5776,85.6956 72.6210667,84.5776 73.9626667,84.5776 C75.3044,84.5776 76.4224,85.6956 76.4224,87.0373333 C76.4224,88.3789333 75.3044,89.4224 73.9626667,89.4224 Z" id="Fill-46"></path>
            </g>
        </g>
    </g>
</svg>

<svg width="117" height="99" viewBox="0 0 117 99" xmlns="http://www.w3.org/2000/svg"><title>DevIcon Copy</title><desc>Created with Sketch.</desc><g fill="#2A1B41"><path d="M115.286 73.124h-3.429v-44.604c0-.929-.786-1.715-1.786-1.715-.929 0-1.714.786-1.714 1.715v14.725h-27.143v-26.448h6.929v8.006c0 1.287 1.072 2.359 2.429 2.359h8.5c1.286 0 2.357-1.072 2.357-2.359v-8.006h6.929v3.717c0 .929.786 1.716 1.714 1.716 1 0 1.786-.786 1.786-1.716v-4.503c0-1.501-1.214-2.716-2.714-2.716h-27.929v-11.58c0-.929-.786-1.715-1.714-1.715-.929 0-1.714.786-1.714 1.715v60.186h-6.643c-.214 0-.5 0-.786.072l-13.429-45.676c-1.286-4.432-5.429-7.577-10-7.577h-33.571c-3.214 0-5.786 2.645-5.786 5.79v21.301c0 .929.786 1.715 1.714 1.715.929 0 1.714-.786 1.714-1.715v-21.301c0-1.287 1.071-2.287 2.357-2.287h33.571c3.071 0 5.857 2.073 6.714 5.004l13.571 46.176-.071.071-.214.215-.072.071c-.143.143-.214.215-.286.357l-1.214 1.43-14.071-47.606c-.571-2.002-2.357-3.36-4.357-3.36h-31.786c-.929 0-1.714.786-1.714 1.716v31.809h-2.429v-4.289c0-.929-.786-1.715-1.714-1.715-.929 0-1.714.786-1.714 1.715v4.289h-1.143c-3.571 0-6.429 2.859-6.429 6.433v29.593c0 2.144 1.714 3.86 3.857 3.86h1.571c1.786 6.362 7.643 11.008 14.5 11.008 6.929 0 12.714-4.646 14.5-11.008h27.071c.5 6.147 5.643 11.008 11.928 11.008 6.643 0 12-5.361 12-11.937 0-3.646-1.643-6.934-4.214-9.149v-1.358h34.071c1 0 1.714-.786 1.714-1.715s-.714-1.716-1.714-1.716zm-23.714-56.326h6.429v6.934h-6.429v-6.934zm-74.714 1.287h30.071c.5 0 .929.286 1.071.786l12.214 41.53-1.5-2.073c-1-1.287-2.857-1.644-4.214-.786l-.929.572-2.143-3.789 2.286-1.43c.786-.5 1.071-1.573.5-2.43-.5-.786-1.5-1.001-2.357-.5l-7.429 4.575c-.786.5-1.071 1.573-.571 2.359.357.572.929.858 1.5.858.286 0 .643-.071.929-.286l2.214-1.358 2.143 3.789-.929.572c-1.429.929-1.929 2.716-1.143 4.217l2.143 4.146h-7.429c-2 0-3.643-1.644-3.643-3.645v-2.502c0-8.077-6.571-14.582-14.571-14.582h-8.214v-30.022zm45.286 50.608c-.072.072-.143.072-.214.072-.072 0-.143.071-.143.071h-7.2139999999999995l-2.857-5.504 4.357-2.716 6.072 8.077zm-30.643 15.797v.571l-.071.357v.071l-.071.429c-.929 5.504-5.714 9.65-11.429 9.65-5.714 0-10.5-4.146-11.429-9.578 0-.215 0-.357-.071-.5v-.5s0-.072-.072-.143v-.857c0-6.362 5.214-11.58 11.571-11.58.429 0 .786 0 1.214.071 5.786.572 10.357 5.504 10.357 11.508v.5zm3.5.072v-.572c0-7.291-5.214-13.367-12-14.725-1-.214-2-.286-3.071-.286-8.286 0-15 6.719-15 15.011v.572h-1.071c-.214 0-.429-.215-.429-.429v-29.593c0-1.644 1.357-3.002 3-3.002h18.643c6.143 0 11.071 5.004 11.071 11.151v2.502c0 3.931 3.214 7.148 7.143 7.148h18.285999999999998c.071-.071.143-.071.214-.071h.357c1.429-.215 2.714-.858 3.643-1.93h.072c0-.072.071-.072.143-.143.072-.072.143-.143.143-.215l3.071-3.717.143-.143c.071-.072.071-.072.143-.072l.072-.143.143-.072.072-.071.214-.072c.357-.214.714-.357 1.143-.357h6.643v10.508l-.214-.072c-.214-.071-.357-.143-.571-.143v-.071c-.214 0-.357-.072-.5-.143h-.071c-.214-.072-.357-.072-.5-.072-.071-.071-.071-.071-.143-.071l-.429-.072h-.143c-.143-.071-.286-.071-.429-.071h-.143l-.429-.072h-1.571l-.286.072h-.357c-.071 0-.143 0-.214.071h-.357l-.143.072c-4.786.858-8.571 4.575-9.571 9.292h-26.714zm47 2.502c0 4.718-3.857 8.506-8.571 8.506-4.714 0-8.5-3.788-8.5-8.506v-.643c.286-4.003 3.429-7.291 7.286-7.863h.572c.071-.071.143-.071.214-.071h.9299999999999999l.357.071h.429c0 .072 0 .072.072.072.214 0 .5.071.786.143 3.714.929 6.429 4.289 6.429 8.292zm9.571-40.386h6.429v6.934h-6.429v-6.934zm-10.357 26.448v-26.448h6.929v8.006c0 1.358 1.072 2.43 2.429 2.43h8.5c1.286 0 2.357-1.072 2.357-2.43v-8.006h6.929v26.448h-27.143z"/><path d="M20 75c-3.853 0-7 3.596-7 8s3.147 8 7 8 7-3.596 7-8-3.147-8-7-8zm0 12.477c-2.119 0-3.853-2.055-3.853-4.477s1.734-4.477 3.853-4.477c2.183 0 3.917 2.055 3.917 4.477s-1.734 4.477-3.917 4.477z"/><path d="M73.963 81c-3.279 0-5.963 2.683-5.963 6.037 0 3.279 2.683 5.963 5.963 5.963 3.354 0 6.037-2.683 6.037-5.963 0-3.354-2.683-6.037-6.037-6.037zm0 8.422c-1.342 0-2.385-1.043-2.385-2.385 0-1.342 1.043-2.46 2.385-2.46 1.342 0 2.46 1.118 2.46 2.46 0 1.342-1.118 2.385-2.46 2.385z"/></g></svg>
